X: 7401
T: Clog De Champagne
R: barndance
M: 4/4
K: Gmajor
|:Bc|(3dBd ge dBBG|ABcA E2AG|FdB> DEcA >F|(3GBA (3GFE D2 Bc|
(3dBd ge dBBG|ABcA E2 AG|FdB> DEcA >F|G2B2G2:|
|:(3DEF|GFGB AGEA|GFGB d2(3BdB|AdcA FdcA|GFGB d2 (3DEF|
GFGB AGEA|GFGB d2 (3BdB|ABcA FDEF|1 GgdB G2:|2 G2B2G2||

